X: 1
T:A Little Child
M:3/4
L:1/8
C:Annbjorg Lien
S:Sweet Sunny North, David Lindley
K:D
:FE|D3B, DF|A4"~"B<A|G4A2|F4A2|G3F ED|B,2D2F2|"~"E6|D4:|!
F2|E3F GA|B4F2|E3FG2|A4F2|F3GA2|"~"B4F2|"~"F4G<F|E6-|E4DC|B,3CD2|E2D2C2|
B,4C
<B,|
A,4A,2|D3A, DF|A4"~"B<A|G4A2|F4A2|G3F ED|B,2D2F2|E3CB,2|A,6-|A,4A,2|B,A,
 B
,C DE|F4G<F|"~"E6|D6||
